styles/1/Numix/22/actions/custom-document-open-recent.svg

<?xml version="1.0" encoding="UTF-8" standalone="no"?>
<!-- Created with Inkscape (http://www.inkscape.org/) -->

<svg
   xmlns:dc="http://purl.org/dc/elements/1.1/"
   xmlns:cc="http://creativecommons.org/ns#"
   xmlns:rdf="http://www.w3.org/1999/02/22-rdf-syntax-ns#"
   xmlns:svg="http://www.w3.org/2000/svg"
   xmlns="http://www.w3.org/2000/svg"
   xmlns:sodipodi="http://sodipodi.sourceforge.net/DTD/sodipodi-0.dtd"
   xmlns:inkscape="http://www.inkscape.org/namespaces/inkscape"
   id="svg3396"
   height="22"
   width="22"
   version="1.0"
   inkscape:version="0.91 r"
   sodipodi:docname="custom-document-open-recent.svg">
  <metadata
     id="metadata64">
    <rdf:RDF>
      <cc:Work
         rdf:about="">
        <dc:format>image/svg+xml</dc:format>
        <dc:type
           rdf:resource="http://purl.org/dc/dcmitype/StillImage" />
        <dc:title />
      </cc:Work>
    </rdf:RDF>
  </metadata>
  <sodipodi:namedview
     pagecolor="#ffffff"
     bordercolor="#666666"
     borderopacity="1"
     objecttolerance="10"
     gridtolerance="10"
     guidetolerance="10"
     inkscape:pageopacity="0"
     inkscape:pageshadow="2"
     inkscape:window-width="1366"
     inkscape:window-height="747"
     id="namedview62"
     showgrid="true"
     inkscape:zoom="23.74981"
     inkscape:cx="2.7197404"
     inkscape:cy="12.583641"
     inkscape:window-x="0"
     inkscape:window-y="21"
     inkscape:window-maximized="1"
     inkscape:current-layer="svg3396"
     showguides="true"
     inkscape:guide-bbox="true">
    <inkscape:grid
       type="xygrid"
       id="grid3906"
       empspacing="5"
       visible="true"
       enabled="true"
       snapvisiblegridlinesonly="true" />
  </sodipodi:namedview>
  <defs
     id="defs3398" />
  <path
     style="font-size:medium;font-style:normal;font-variant:normal;font-weight:normal;font-stretch:normal;text-indent:0;text-align:start;text-decoration:none;line-height:normal;letter-spacing:normal;word-spacing:normal;text-transform:none;direction:ltr;block-progression:tb;writing-mode:lr-tb;text-anchor:start;baseline-shift:baseline;color:#000000;fill:replacecolour1;fill-opacity:1;fill-rule:nonzero;stroke:none;stroke-width:1.52408636;marker:none;visibility:visible;display:inline;overflow:visible;enable-background:accumulate;font-family:Sans;-inkscape-font-specification:Sans;opacity:0.4"
     d="m 1,10 2,0 9,0 1,1 0,1 6,0 0,0 2,0 0,-6.1875 C 20.9938,5.4215206 20.640979,5.0686695 20.25,5.0625 L 13,5.0625 13,3.75 C 12.9938,3.3590206 12.640979,3.0061695 12.25,3 L 1.75,3 C 1.708427,2.99658 1.666573,2.99658 1.625,3 1.2775698,3.0635461 0.99985303,3.3968062 1,3.75 z"
     id="path3912"
     inkscape:connector-curvature="0"
     sodipodi:nodetypes="ccccccccccccccccc" />
  <rect
     style="fill:#eae7d1;fill-opacity:1;stroke:none"
     id="rect2995"
     width="18"
     height="9.9999828"
     x="2"
     y="1.9999831" />
  <rect
     style="fill:#7a7a68;fill-opacity:1;stroke:none"
     id="rect3863-6"
     width="14"
     height="1.0000174"
     x="4"
     y="9.9999828" />
  <path
     style="font-size:medium;font-style:normal;font-variant:normal;font-weight:normal;font-stretch:normal;text-indent:0;text-align:start;text-decoration:none;line-height:normal;letter-spacing:normal;word-spacing:normal;text-transform:none;direction:ltr;block-progression:tb;writing-mode:lr-tb;text-anchor:start;baseline-shift:baseline;opacity:1.0;color:#000000;fill:replacecolour1;fill-opacity:1;fill-rule:nonzero;stroke:none;stroke-width:1.52408636;marker:none;visibility:visible;display:inline;overflow:visible;enable-background:accumulate;font-family:Sans;-inkscape-font-specification:Sans"
     d="M 1 10 L 1 18.25 C 1.00617 18.640979 1.3590206 18.99383 1.75 19 L 20.25 19 C 20.640979 18.9938 20.99383 18.640979 21 18.25 L 21 12 L 19 12 L 15 12 L 13 12 L 13 11 L 12 10 L 3 10 L 1 10 z "
     id="path3798" />
  <rect
     style="fill:#7a7a68;fill-opacity:1;stroke:none"
     id="rect3863"
     width="14"
     height="1.0000174"
     x="4"
     y="7.9999828" />
  <rect
     style="fill:#7a7a68;fill-opacity:1;stroke:none"
     id="rect3794-3"
     width="14"
     height="1.0000174"
     x="4"
     y="3.9999828" />
  <rect
     y="5.9999828"
     x="4"
     height="1.0000174"
     width="14"
     id="rect3861"
     style="fill:#7a7a68;fill-opacity:1;stroke:none" />
  <g
     transform="matrix(1,0,0,0.99457,-1,-0.97779473)"
     id="g10">
    <path
       inkscape:connector-curvature="0"
       style="fill:#859900;fill-rule:evenodd"
       d="m 20.95,13.17 a 4.881,4.831 0 1 1 -9.76,0 4.881,4.831 0 1 1 9.76,0 z"
       transform="translate(0.811,3.999)"
       id="path12" />
    <path
       inkscape:connector-curvature="0"
       style="line-height:normal;color:#000000;fill:#ffffff"
       d="m 19.55,14.07 a 0.5,0.5 0 0 0 -0.25,0.2 l -2.66,2.6 -1.66,-1.6 a 0.5,0.5 0 1 0 -0.68,0.6 l 2,2 a 0.5,0.5 0 0 0 0.68,0 l 3,-3 a 0.5,0.5 0 0 0 -0.43,-0.8 z"
       id="path14" />
  </g>
</svg>

<!-- Created with Inkscape (http://www.inkscape.org/) -->
<svg xmlns="http://www.w3.org/2000/svg" viewBox="0 0 22 22">
 <path d="m 1 10 2 0 9 0 1 1 0 1 6 0 0 0 2 0 0 -6.188 c -0.006 -0.391 -0.359 -0.744 -0.75 -0.75 l -7.25 0 0 -1.313 c -0.006 -0.391 -0.359 -0.744 -0.75 -0.75 l -10.5 0 c -0.042 -0.003 -0.083 -0.003 -0.125 0 -0.347 0.064 -0.625 0.397 -0.625 0.75 z" style="visibility:visible;fill:replacecolour1;opacity:0.4;fill-opacity:1;stroke:none;display:inline;color:#000;fill-rule:nonzero"/>
 <rect width="18" height="10" x="2" y="2" style="fill:#eae7d1;fill-opacity:1;stroke:none"/>
 <rect width="14" height="1" x="4" y="10" style="fill:#7a7a68;fill-opacity:1;stroke:none"/>
 <path d="m 1 10 l 0 8.25 c 0.006 0.391 0.359 0.744 0.75 0.75 l 18.5 0 c 0.391 -0.006 0.744 -0.359 0.75 -0.75 l 0 -6.25 l -2 0 l -4 0 l -2 0 l 0 -1 l -1 -1 l -9 0 l -2 0 z" style="visibility:visible;fill:replacecolour1;opacity:1;fill-opacity:1;stroke:none;display:inline;color:#000;fill-rule:nonzero"/>
 <rect width="14" height="1" x="4" y="8" style="fill:#7a7a68;fill-opacity:1;stroke:none"/>
 <rect width="14" height="1" x="4" y="4" style="fill:#7a7a68;fill-opacity:1;stroke:none"/>
 <rect y="6" x="4" height="1" width="14" style="fill:#7a7a68;fill-opacity:1;stroke:none"/>
 <g transform="matrix(1,0,0,0.99457,-1,-0.97779473)">
  <path d="m 20.95 13.17 a 4.881 4.831 0 1 1 -9.76 0 4.881 4.831 0 1 1 9.76 0 z" transform="translate(0.811,3.999)" style="fill:#859900;fill-rule:evenodd"/>
  <path d="m 19.55 14.07 a 0.5 0.5 0 0 0 -0.25 0.2 l -2.66 2.6 -1.66 -1.6 a 0.5 0.5 0 1 0 -0.68 0.6 l 2 2 a 0.5 0.5 0 0 0 0.68 0 l 3 -3 a 0.5 0.5 0 0 0 -0.43 -0.8 z" style="fill:#fff;color:#000"/>
 </g>
</svg>
